client/src/assets/images/touchpad/cam.svg

<?xml version="1.0" encoding="UTF-8" standalone="no"?>
<!-- Created with Inkscape (http://www.inkscape.org/) -->

<svg
   width="100mm"
   height="80mm"
   viewBox="0 0 100 80"
   version="1.1"
   id="svg5"
   inkscape:version="1.1.1 (3bf5ae0d25, 2021-09-20, custom)"
   sodipodi:docname="cam.svg"
   inkscape:export-filename="/home/mehdi/Projects/my_gits/TouchControls (copy)/images/cam.png"
   inkscape:export-xdpi="17.779999"
   inkscape:export-ydpi="17.779999"
   xmlns:inkscape="http://www.inkscape.org/namespaces/inkscape"
   xmlns:sodipodi="http://sodipodi.sourceforge.net/DTD/sodipodi-0.dtd"
   xmlns="http://www.w3.org/2000/svg"
   xmlns:svg="http://www.w3.org/2000/svg"
   xmlns:rdf="http://www.w3.org/1999/02/22-rdf-syntax-ns#"
   xmlns:cc="http://creativecommons.org/ns#"
   xmlns:dc="http://purl.org/dc/elements/1.1/">
  <sodipodi:namedview
     id="namedview7"
     pagecolor="#bdbdbd"
     bordercolor="#666666"
     borderopacity="1.0"
     inkscape:pageshadow="2"
     inkscape:pageopacity="0"
     inkscape:pagecheckerboard="false"
     inkscape:document-units="px"
     showgrid="false"
     inkscape:showpageshadow="false"
     inkscape:zoom="1.7076629"
     inkscape:cx="112.43437"
     inkscape:cy="167.18756"
     inkscape:window-width="1920"
     inkscape:window-height="1020"
     inkscape:window-x="0"
     inkscape:window-y="28"
     inkscape:window-maximized="1"
     inkscape:current-layer="layer2"
     fit-margin-top="3"
     fit-margin-right="3"
     fit-margin-left="3"
     fit-margin-bottom="3" />
  <defs
     id="defs2">
    <marker
       style="overflow:visible"
       id="Arrow2Mstart"
       refX="0"
       refY="0"
       orient="auto"
       inkscape:stockid="Arrow2Mstart"
       inkscape:isstock="true">
      <path
         transform="scale(0.6)"
         d="M 8.7185878,4.0337352 -2.2072895,0.01601326 8.7185884,-4.0017078 c -1.7454984,2.3720609 -1.7354408,5.6174519 -6e-7,8.035443 z"
         style="fill:context-stroke;fill-rule:evenodd;stroke:context-stroke;stroke-width:0.625;stroke-linejoin:round"
         id="path8219" />
    </marker>
    <marker
       style="overflow:visible"
       id="Arrow1Mstart"
       refX="0"
       refY="0"
       orient="auto"
       inkscape:stockid="Arrow1Mstart"
       inkscape:isstock="true">
      <path
         transform="matrix(0.4,0,0,0.4,4,0)"
         style="fill:context-stroke;fill-rule:evenodd;stroke:context-stroke;stroke-width:1pt"
         d="M 0,0 5,-5 -12.5,0 5,5 Z"
         id="path8201" />
    </marker>
    <marker
       id="ExperimentalArrow"
       refX="5"
       refY="3"
       orient="auto-start-reverse"
       inkscape:stockid="ExperimentalArrow"
       inkscape:isstock="true">
      <path
         style="fill:context-stroke"
         d="M 10,3 0,6 V 0 Z"
         id="path8448" />
    </marker>
    <marker
       style="overflow:visible"
       id="TriangleOutM"
       refX="0"
       refY="0"
       orient="auto"
       inkscape:stockid="TriangleOutM"
       inkscape:isstock="true">
      <path
         transform="scale(0.4)"
         style="fill:context-stroke;fill-rule:evenodd;stroke:context-stroke;stroke-width:1pt"
         d="M 5.77,0 -2.88,5 V -5 Z"
         id="path8340" />
    </marker>
    <marker
       style="overflow:visible"
       id="TriangleOutL"
       refX="0"
       refY="0"
       orient="auto"
       inkscape:stockid="TriangleOutL"
       inkscape:isstock="true">
      <path
         transform="scale(0.8)"
         style="fill:context-stroke;fill-rule:evenodd;stroke:context-stroke;stroke-width:1pt"
         d="M 5.77,0 -2.88,5 V -5 Z"
         id="path8337" />
    </marker>
    <marker
       style="overflow:visible"
       id="marker8499"
       refX="0"
       refY="0"
       orient="auto"
       inkscape:stockid="Arrow2Mend"
       inkscape:isstock="true">
      <path
         transform="scale(-0.6)"
         d="M 8.7185878,4.0337352 -2.2072895,0.01601326 8.7185884,-4.0017078 c -1.7454984,2.3720609 -1.7354408,5.6174519 -6e-7,8.035443 z"
         style="fill:context-stroke;fill-rule:evenodd;stroke:context-stroke;stroke-width:0.625;stroke-linejoin:round"
         id="path8497" />
    </marker>
    <marker
       style="overflow:visible"
       id="Arrow2Sstart"
       refX="0"
       refY="0"
       orient="auto"
       inkscape:stockid="Arrow2Sstart"
       inkscape:isstock="true">
      <path
         transform="matrix(0.3,0,0,0.3,-0.69,0)"
         d="M 8.7185878,4.0337352 -2.2072895,0.01601326 8.7185884,-4.0017078 c -1.7454984,2.3720609 -1.7354408,5.6174519 -6e-7,8.035443 z"
         style="fill:context-stroke;fill-rule:evenodd;stroke:context-stroke;stroke-width:0.625;stroke-linejoin:round"
         id="path8225" />
    </marker>
    <marker
       style="overflow:visible"
       id="marker8481"
       refX="0"
       refY="0"
       orient="auto"
       inkscape:stockid="Arrow2Mend"
       inkscape:isstock="true">
      <path
         transform="scale(-0.6)"
         d="M 8.7185878,4.0337352 -2.2072895,0.01601326 8.7185884,-4.0017078 c -1.7454984,2.3720609 -1.7354408,5.6174519 -6e-7,8.035443 z"
         style="fill:context-stroke;fill-rule:evenodd;stroke:context-stroke;stroke-width:0.625;stroke-linejoin:round"
         id="path8479" />
    </marker>
    <marker
       style="overflow:visible"
       id="Arrow2Mend"
       refX="0"
       refY="0"
       orient="auto"
       inkscape:stockid="Arrow2Mend"
       inkscape:isstock="true">
      <path
         transform="scale(-0.6)"
         d="M 8.7185878,4.0337352 -2.2072895,0.01601326 8.7185884,-4.0017078 c -1.7454984,2.3720609 -1.7354408,5.6174519 -6e-7,8.035443 z"
         style="fill:context-stroke;fill-rule:evenodd;stroke:context-stroke;stroke-width:0.625;stroke-linejoin:round"
         id="path8222" />
    </marker>
    <marker
       style="overflow:visible"
       id="Arrow1Mend"
       refX="0"
       refY="0"
       orient="auto"
       inkscape:stockid="Arrow1Mend"
       inkscape:isstock="true">
      <path
         transform="matrix(-0.4,0,0,-0.4,-4,0)"
         style="fill:context-stroke;fill-rule:evenodd;stroke:context-stroke;stroke-width:1pt"
         d="M 0,0 5,-5 -12.5,0 5,5 Z"
         id="path8204" />
    </marker>
    <marker
       style="overflow:visible"
       id="Arrow1Lend"
       refX="0"
       refY="0"
       orient="auto"
       inkscape:stockid="Arrow1Lend"
       inkscape:isstock="true">
      <path
         transform="matrix(-0.8,0,0,-0.8,-10,0)"
         style="fill:context-stroke;fill-rule:evenodd;stroke:context-stroke;stroke-width:1pt"
         d="M 0,0 5,-5 -12.5,0 5,5 Z"
         id="path8198" />
    </marker>
  </defs>
  <g
     inkscape:groupmode="layer"
     id="layer2"
     inkscape:label="Layer 2"
     transform="translate(0.43972114,1.4286211)">
    <g
       id="g13478"
       transform="translate(-0.1609155,-8.9635022)">
      <path
         style="opacity:1;fill:none;fill-rule:evenodd;stroke:#808080;stroke-width:3.43958;stroke-linecap:round;stroke-linejoin:round;stroke-miterlimit:4;stroke-dasharray:none;stroke-opacity:0.7;marker-start:url(#Arrow2Mstart)"
         d="m 46.212826,78.55906 c -25.300043,0 -42.1687167,-7.200848 -42.1687167,-15.98798 0,-4.267162 4.6042343,-8.219443 12.4773537,-11.076678"
         id="path12740"
         sodipodi:nodetypes="csc"
         inkscape:export-filename="/home/mehdi/Projects/my_gits/TouchControls (copy)/images/cam.png"
         inkscape:export-xdpi="18.704145"
         inkscape:export-ydpi="18.704145" />
      <path
         style="opacity:1;fill:none;fill-rule:evenodd;stroke:#808080;stroke-width:3.43958;stroke-linecap:round;stroke-linejoin:round;stroke-miterlimit:4;stroke-dasharray:none;stroke-opacity:0.7"
         d="m 83.383209,51.615374 c 7.802577,2.853002 12.280461,6.710162 12.280461,10.955706 v 3e-6 c 0,7.288807 -13.778377,13.415434 -34.448115,15.548651"
         id="path10907"
         sodipodi:nodetypes="cssc"
         inkscape:export-filename="/home/mehdi/Projects/my_gits/TouchControls (copy)/images/cam.png"
         inkscape:export-xdpi="18.704145"
         inkscape:export-ydpi="18.704145" />
      <path
         style="fill:none;stroke:#808080;stroke-width:3.43958;stroke-linecap:butt;stroke-linejoin:miter;stroke-miterlimit:4;stroke-dasharray:none;stroke-opacity:0.7"
         d="m 38.976401,20.90891 c -5.260945,1.035537 -16.5926,-1.204031 -20.457395,1.498627 -3.279582,2.293418 -2.070349,34.968863 0.214342,37.870815 3.412407,4.334345 58.767979,4.66486 62.710483,0.519098 2.905593,-3.055392 2.543868,-35.783371 -0.08474,-38.360885 -2.721989,-2.669083 -13.619094,-0.682255 -20.990643,-1.53484 -3.148789,-0.364186 -1.743809,-7.244264 -4.754671,-8.235331 -3.120457,-1.027142 -7.736213,-1.059442 -10.809579,0 -3.21209,1.107263 -2.494186,7.586345 -5.827801,8.242516 z"
         id="path983"
         sodipodi:nodetypes="sssssssss"
         inkscape:export-filename="/home/mehdi/Projects/my_gits/TouchControls (copy)/images/cam.png"
         inkscape:export-xdpi="18.704145"
         inkscape:export-ydpi="18.704145" />
      <circle
         style="opacity:1;fill:none;fill-rule:evenodd;stroke:#808080;stroke-width:3.43958;stroke-linecap:round;stroke-linejoin:round;stroke-miterlimit:4;stroke-dasharray:none;stroke-opacity:0.7"
         id="path5849"
         cx="50.022923"
         cy="41.539059"
         r="12.530633"
         inkscape:export-filename="/home/mehdi/Projects/my_gits/TouchControls (copy)/images/cam.png"
         inkscape:export-xdpi="18.704145"
         inkscape:export-ydpi="18.704145" />
    </g>
  </g>
  <metadata
     id="metadata824">
    <rdf:RDF>
      <cc:Work
         rdf:about="">
        <dc:creator>
          <cc:Agent>
            <dc:title>Medise Art</dc:title>
          </cc:Agent>
        </dc:creator>
      </cc:Work>
    </rdf:RDF>
  </metadata>
</svg>

<?xml version="1.0" encoding="UTF-8" standalone="no"?>
<!DOCTYPE svg PUBLIC "-//W3C//DTD SVG 1.1//EN" "http://www.w3.org/Graphics/SVG/1.1/DTD/svg11.dtd">
<svg width="100%" height="100%" viewBox="0 0 100 80" version="1.1" xmlns="http://www.w3.org/2000/svg" xmlns:xlink="http://www.w3.org/1999/xlink" xml:space="preserve" xmlns:serif="http://www.serif.com/" style="fill-rule:evenodd;clip-rule:evenodd;stroke-linejoin:round;stroke-miterlimit:2;">
    <g id="Layer-2" serif:id="Layer 2" transform="matrix(1,0,0,1,0.439721,1.42862)">
        <g id="g13478" transform="matrix(1,0,0,1,-0.160915,-8.9635)">
            <path id="path12740" d="M46.213,78.559C20.913,78.559 4.044,71.358 4.044,62.571C4.044,58.304 8.648,54.352 16.521,51.494" style="fill:none;stroke:rgb(218,227,232);stroke-opacity:0.67;stroke-width:2.5px;"/>
            <path id="path10907" d="M83.383,51.615C91.186,54.468 95.664,58.326 95.664,62.571L95.664,62.571C95.664,69.86 81.885,75.987 61.216,78.12" style="fill:none;stroke:rgb(218,227,232);stroke-opacity:0.65;stroke-width:2.5px;"/>
            <path id="path983" d="M38.976,20.909C33.715,21.944 22.384,19.705 18.519,22.408C15.239,24.701 16.449,57.376 18.733,60.278C22.146,64.613 77.501,64.943 81.444,60.797C84.349,57.742 83.988,25.014 81.359,22.437C78.637,19.767 67.74,21.754 60.368,20.902C57.22,20.538 58.625,13.657 55.614,12.666C52.493,11.639 47.878,11.607 44.804,12.666C41.592,13.774 42.31,20.253 38.976,20.909L38.976,20.909Z" style="fill:none;stroke:rgb(218,227,232);stroke-opacity:0.65;stroke-width:2.5px;"/>
            <circle id="path5849" cx="50.023" cy="41.539" r="12.531" style="fill:none;stroke:rgb(218,227,232);stroke-opacity:0.65;stroke-width:2.5px;"/>
        </g>
        <g transform="matrix(3.96786e-17,0.648,-0.648,3.96786e-17,74.4034,74.7385)">
            <path d="M-7.937,31.987L-1.79,44.28L-14.083,44.28L-7.937,31.987Z" style="fill:none;stroke:rgb(218,227,232);stroke-opacity:0.67;stroke-width:3.86px;stroke-linecap:round;stroke-miterlimit:1.5;"/>
        </g>
    </g>
</svg>
